X:28
T:Shave the Donkey
T:Dance: Northumberland Musketeers
H:Dance composed by Mike Miller
H:Tune is the Bampton version
C:Traditional.
M:4/4
L:1/8
K:G
d2 B2 d>c B>A | G2 g2 e2 g2 | d2 B2 d>c B>A | G2 B2 G4 :|
A3 c B2 d2 | A3 c B2 d2 | A3 c B2 d>e | d>c B>A B2 G2 |
A2 A>c B2 d2 | A2 A>c B2 d2 | A2 A>c B2 d>e | d>c B>A G4 |]
